X:1
T:Transylvania, LM
T:Transylvania, LM
T:Hungarian Chorale, 16th Century
T:Courtesy of the Cyber Hymnal™
C:Hungarian Chorale, 16th Century
Z:Courtesy of the Cyber Hymnal™
%%score ( 1 2 ) ( 3 4 )
L:1/8
Q:1/4=135
M:4/4
K:D
V:1 treble 
V:2 treble 
V:3 bass 
V:4 bass 
V:1
 [DF]4 [DF]2 [EA]2 | [DG]4 E4 | [DF]4 D4 | [CE]8 | [FA]4 [FA]2 [FA]2 | [Fd]4 [Fc]4 | [FB]4 B4 | %7
 [CA]8 | [EA]4 [EB]2 [Gc]2 | [Fd]4 [EA]4 | [FB]4 G4 | [CF]8 | [B,E]4 [CF]2 [DG]2 | [A,A]4 [DF]4 | %14
 [DE]4 [CE]4 | [A,D]8 |] %16
V:2
 x8 | x4 E4 | x4 D4 | x8 | x8 | x8 | x4 (E2 D2) | x8 | x8 | x8 | x4 (E2 D2) | x8 | x8 | x8 | x8 | %15
 x8 |] %16
V:3
 [D,A,]4 [D,A,]2 [C,A,]2 | [B,,B,]4 [C,A,]4 | [B,,A,]4 [F,A,]4 | A,8 | [F,C]4 [F,D]2 [F,C]2 | %5
 [B,,B,]4 [C,A,]4 | [D,A,]4 [E,^G,]4 | [A,,A,]8 | [A,C]4 [G,B,]2 [E,A,]2 | [D,A,]4 [C,A,]4 | %10
 [D,D]4 [E,B,]4 | [F,^A,]8 | [G,B,]4 A,2 [G,B,]2 | [F,D]4 [D,A,]4 | [G,,B,]4 (A,2 G,2) | [D,F,]8 |] %16
V:4
 x8 | x8 | x8 | A,8 | x8 | x8 | x8 | x8 | x8 | x8 | x8 | x8 | x4 A,2 x2 | x8 | x4 A,,4 | x8 |] %16

